; generated by PrusaSlicer 2.4.0+win64 on 2022-02-11 at 19:11:28 UTC

; 

; external perimeters extrusion width = 0.45mm
; perimeters extrusion width = 0.45mm
; infill extrusion width = 0.45mm
; solid infill extrusion width = 0.45mm
; top infill extrusion width = 0.40mm
; first layer extrusion width = 0.42mm

; external perimeters extrusion width = 0.45mm
; perimeters extrusion width = 0.45mm
; infill extrusion width = 0.45mm
; solid infill extrusion width = 0.45mm
; top infill extrusion width = 0.40mm
; first layer extrusion width = 0.42mm

M73 P0 R93
M73 Q0 S94
M201 X1000 Y1000 Z200 E5000 ; sets maximum accelerations, mm/sec^2
M203 X200 Y200 Z12 E120 ; sets maximum feedrates, mm/sec
M204 P1250 R1250 T1250 ; sets acceleration (P, T) and retract acceleration (R), mm/sec^2
M205 X8.00 Y8.00 Z0.40 E4.50 ; sets the jerk limits, mm/sec
M205 S0 T0 ; sets the minimum extruding and travel feed rate, mm/sec
M107
;TYPE:Custom
M862.3 P "MK3S" ; printer model check
M862.1 P0.4 ; nozzle diameter check
M115 U3.10.1 ; tell printer latest fw version
G90 ; use absolute coordinates
M83 ; extruder relative mode
M104 S215 ; set extruder temp
M140 S60 ; set bed temp
M190 S60 ; wait for bed temp
M109 S215 ; wait for extruder temp
G28 W ; home all without mesh bed level
G80 ; mesh bed leveling
G1 Z0.2 F720
G1 Y-3 F1000 ; go outside print area
G92 E0
G1 X60 E9 F1000 ; intro line
G1 X100 E12.5 F1000 ; intro line
G92 E0
M221 S95

; Don't change E values below. Excessive value can damage the printer.
M907 E430 ; set extruder motor current
G21 ; set units to millimeters
G90 ; use absolute coordinates
M83 ; use relative distances for extrusion
M900 K0.05 ; Filament gcode LA 1.5
M900 K30 ; Filament gcode LA 1.0
M107
;LAYER_CHANGE
;Z:0.2
;HEIGHT:0.2
;BEFORE_LAYER_CHANGE
G92 E0.0
;0.2


G1 E-.8 F2100
G1 Z.4 F720
;AFTER_LAYER_CHANGE
;0.2
G1 X53.452 Y31.268 F10800
G1 Z.2 F720
G1 E.8 F2100
M204 S800
;TYPE:Skirt/Brim
;WIDTH:0.42
G1 F1200
G1 X55.153 Y30.215 E.06273
G1 X95.183 Y25.394 E1.26417
G1 X98.069 Y25.162 E.09078
G1 X100.872 Y25.105 E.0879
G1 X103.673 Y25.214 E.0879
G1 X106.324 Y25.47 E.08349
G1 X109.232 Y25.927 E.09231
G1 X111.97 Y26.529 E.0879
G1 X114.533 Y27.25 E.08349
G1 X117.315 Y28.214 E.09231
G1 X119.775 Y29.233 E.08349
G1 X122.299 Y30.454 E.0879
G1 X124.746 Y31.821 E.0879
G1 X127.224 Y33.411 E.09231
G1 X129.376 Y34.979 E.08349
G1 X131.543 Y36.758 E.0879
G1 X133.66 Y38.718 E.09045
G1 X189.271 Y93.99 E2.45839
G1 X191.112 Y95.914 E.08349
G1 X192.93 Y98.047 E.0879
G1 X194.619 Y100.285 E.0879
G1 X196.344 Y102.924 E.09884
G1 X196.769 Y103.985 E.03585
G1 X196.888 Y104.56 E.01841
G1 X196.917 Y105.698 E.03568
G1 X196.681 Y106.81 E.03567
G1 X196.191 Y107.843 E.03583
G1 X195.393 Y108.817 E.03947
G1 X120.476 Y184.196 E3.33221
G1 X118.79 Y184.897 E.05726
G1 X113.26 Y184.897 E.17337
G1 X111.585 Y184.206 E.05683
G1 X56.015 Y128.976 E2.45653
G1 X55.451 Y128.085 E.03306
M73 Q0 S93
G1 X53.197 Y121.739 E.21117
G1 X53.06 Y120.943 E.0253
G1 X53.06 Y32.575 E2.77073
G1 X53.435 Y31.325 E.0409
M204 S1000
; printing object Spray_Can_Rack_Improved.stl id:1 copy 0
;WIPE_START
M73 P0 R92
G1 F8640
G1 X55.153 Y30.215 E-.47242
G1 X56.39 Y30.066 E-.28758
;WIPE_END
G1 E-.04 F2100
G1 Z.6 F720
G1 X112.194 Y88.592 F10800
G1 Z.2 F720
G1 E.8 F2100
M204 S800
;TYPE:Perimeter
G1 F1200
G1 X113.081 Y88.592 E.02779
G1 X112.101 Y95.442 E.21695
G1 X119.913 Y95.442 E.24495
G1 X118.934 Y88.592 E.21695
G1 X120.322 Y88.592 E.04354
G1 X120.419 Y89.192 E.01905
G1 X120.77 Y90.161 E.03233
G1 X121.286 Y91.05 E.03223
G1 X121.952 Y91.834 E.03223
G1 X122.745 Y92.487 E.03223
G1 X123.641 Y92.991 E.03223
G1 X124.612 Y93.327 E.03223
G1 X125.627 Y93.487 E.03222
G1 X126.655 Y93.465 E.03223
G1 X127.662 Y93.261 E.03223
G1 X128.618 Y92.883 E.03223
G1 X129.452 Y92.366 E.03076
G1 X131.628 Y90.831 E.08349
G1 X133.851 Y89.453 E.08202
G1 X136.153 Y88.209 E.08203
G1 X138.523 Y87.103 E.08202
G1 X140.955 Y86.139 E.08203
G1 X143.44 Y85.321 E.08203
G1 X145.969 Y84.651 E.08202
G1 X148.534 Y84.133 E.08203
G1 X151.124 Y83.767 E.08202
G1 X153.731 Y83.555 E.08202
G1 X156.367 Y83.498 E.08267
G1 X158.961 Y83.595 E.08138
G1 X161.565 Y83.847 E.08202
G1 X164.149 Y84.253 E.08202
G1 X166.705 Y84.811 E.08203
G1 X169.223 Y85.52 E.08203
G1 X171.695 Y86.376 E.08203
G1 X174.112 Y87.377 E.08202
G1 X176.466 Y88.52 E.08202
G1 X178.747 Y89.8 E.08202
G1 X180.949 Y91.212 E.08203
G1 X183.064 Y92.753 E.08203
G1 X185.083 Y94.415 E.08202
G1 X187.001 Y96.195 E.08203
G1 X188.81 Y98.085 E.08203
G1 X190.504 Y100.078 E.08202
G1 X192.077 Y102.169 E.08202
G1 X193.504 Y104.32 E.08094
G1 X193.689 Y104.715 E.01367
G1 X193.77 Y105.107 E.01257
G1 X193.757 Y105.508 E.01257
G1 X193.651 Y105.895 E.01257
G1 X193.458 Y106.246 E.01257
G1 X193.188 Y106.543 E.01257
G1 X192.856 Y106.768 E.01257
G1 X192.481 Y106.91 E.01257
G1 X192.093 Y106.959 E.01226
G1 X191.672 Y106.902 E.01332
G1 X191.275 Y106.741 E.01343
G1 X190.931 Y106.486 E.01343
G1 X190.622 Y106.105 E.01539
G1 X189.21 Y103.986 E.07983
G1 X187.628 Y101.912 E.08178
G1 X185.917 Y99.943 E.08178
G1 X184.084 Y98.088 E.08178
G1 X182.135 Y96.354 E.08178
G1 X180.08 Y94.748 E.08178
G1 X177.927 Y93.277 E.08178
G1 X175.683 Y91.946 E.08178
G1 X173.36 Y90.761 E.08178
G1 X170.965 Y89.728 E.08178
G1 X168.509 Y88.849 E.08178
G1 X166.002 Y88.129 E.08178
G1 X163.454 Y87.571 E.08178
G1 X160.876 Y87.177 E.08178
G1 X158.278 Y86.949 E.08178
G1 X155.67 Y86.887 E.08178
G1 X153.064 Y86.991 E.08178
G1 X150.47 Y87.263 E.08178
G1 X147.898 Y87.699 E.08178
G1 X145.36 Y88.299 E.08178
G1 X142.865 Y89.06 E.08178
G1 X140.424 Y89.979 E.08178
G1 X138.047 Y91.052 E.08178
G1 X135.743 Y92.274 E.08178
G1 X133.522 Y93.642 E.08178
G1 X131.393 Y95.149 E.08178
G1 X129.364 Y96.788 E.08178
G1 X127.445 Y98.554 E.08178
G1 X125.642 Y100.439 E.08178
G1 X123.964 Y102.436 E.08178
G1 X122.416 Y104.535 E.08178
G1 X121.006 Y106.729 E.08178
G1 X119.739 Y109.009 E.08178
G1 X118.62 Y111.365 E.08178
G1 X117.654 Y113.788 E.08178
G1 X116.845 Y116.268 E.08178
G1 X116.196 Y118.794 E.08178
G1 X115.71 Y121.357 E.08178
G1 X115.389 Y123.945 E.08178
G1 X115.234 Y126.549 E.08178
G1 X115.245 Y129.157 E.08178
G1 X115.423 Y131.759 E.08178
G1 X115.766 Y134.336 E.08151
G1 X120.22 Y160.952 E.84614
G1 X120.22 Y175.38 E.45237
G1 X116.974 Y175.38 E.10179
G1 X117.882 Y181.733 E.20122
G1 X114.168 Y181.733 E.11645
G1 X115.076 Y175.386 E.20102
G1 X111.794 Y175.386 E.10289
G1 X111.794 Y88.592 E2.72137
G1 X112.134 Y88.592 E.01066
M204 S1000
G1 X111.417 Y88.215 F10800
M204 S800
;TYPE:External perimeter
G1 F1200
G1 X113.516 Y88.215 E.06579
G1 X112.536 Y95.064 E.21695
G1 X119.479 Y95.064 E.21768
G1 X118.499 Y88.215 E.21695
G1 X120.644 Y88.215 E.06725
G1 X120.785 Y89.097 E.028
G1 X121.113 Y90.001 E.03016
G1 X121.596 Y90.832 E.03012
G1 X122.217 Y91.564 E.03012
G1 X122.959 Y92.175 E.03012
G1 X123.796 Y92.645 E.03012
G1 X124.704 Y92.96 E.03012
G1 X125.653 Y93.109 E.03012
G1 X126.613 Y93.089 E.03012
G1 X127.555 Y92.898 E.03012
G1 X128.448 Y92.544 E.03012
G1 X129.244 Y92.051 E.02936
G1 X131.42 Y90.517 E.08349
G1 X133.662 Y89.127 E.08272
G1 X135.983 Y87.872 E.08273
G1 X138.374 Y86.756 E.08272
G1 X140.827 Y85.784 E.08273
G1 X143.333 Y84.959 E.08273
G1 X145.884 Y84.284 E.08272
G1 X148.47 Y83.761 E.08273
G1 X151.082 Y83.392 E.08273
G1 X153.712 Y83.178 E.08272
G1 X156.37 Y83.121 E.08337
G1 X158.986 Y83.219 E.08208
G1 X161.612 Y83.473 E.08272
G1 X164.219 Y83.883 E.08272
G1 X166.797 Y84.445 E.08273
G1 X169.336 Y85.16 E.08273
G1 X171.829 Y86.024 E.08273
G1 X174.267 Y87.033 E.08272
G1 X176.641 Y88.185 E.08273
G1 X178.942 Y89.476 E.08272
G1 X181.162 Y90.901 E.08273
G1 X183.295 Y92.454 E.08273
G1 X185.332 Y94.131 E.08272
G1 X187.266 Y95.926 E.08273
G1 X189.09 Y97.832 E.08273
G1 X190.798 Y99.843 E.08272
G1 X192.385 Y101.951 E.08272
G1 X193.833 Y104.135 E.08216
G1 X194.049 Y104.595 E.01594
M73 P1 R92
G1 X194.148 Y105.075 E.01537
G1 X194.132 Y105.565 E.01537
G1 X194.003 Y106.038 E.01537
G1 X193.767 Y106.467 E.01537
G1 X193.437 Y106.829 E.01537
G1 X193.031 Y107.105 E.01537
G1 X192.573 Y107.278 E.01537
G1 X192.092 Y107.339 E.01521
G1 X191.574 Y107.27 E.01636
G1 X191.089 Y107.072 E.01642
G1 X190.668 Y106.761 E.01642
G1 X190.318 Y106.328 E.01744
G1 X188.903 Y104.205 E.08001
M73 Q1 S93
G1 X187.336 Y102.15 E.08102
G1 X185.641 Y100.2 E.08102
G1 X183.824 Y98.362 E.08103
G1 X181.894 Y96.644 E.08102
G1 X179.858 Y95.053 E.08102
G1 X177.724 Y93.595 E.08102
G1 X175.501 Y92.276 E.08102
G1 X173.199 Y91.103 E.08102
G1 X170.827 Y90.079 E.08102
G1 X168.393 Y89.208 E.08103
G1 X165.91 Y88.495 E.08102
G1 X163.385 Y87.942 E.08102
G1 X160.831 Y87.552 E.08103
G1 X158.257 Y87.325 E.08103
G1 X155.673 Y87.264 E.08102
G1 X153.091 Y87.368 E.08102
G1 X150.521 Y87.636 E.08102
G1 X147.973 Y88.069 E.08103
G1 X145.459 Y88.663 E.08102
G1 X142.987 Y89.417 E.08103
G1 X140.568 Y90.327 E.08102
G1 X138.213 Y91.39 E.08103
G1 X135.93 Y92.602 E.08102
G1 X133.73 Y93.957 E.08102
G1 X131.62 Y95.449 E.08102
G1 X129.611 Y97.074 E.08102
G1 X127.709 Y98.823 E.08102
G1 X125.923 Y100.691 E.08103
G1 X124.26 Y102.669 E.08102
G1 X122.727 Y104.749 E.08102
G1 X121.33 Y106.923 E.08103
G1 X120.074 Y109.182 E.08102
G1 X118.966 Y111.516 E.08103
G1 X118.009 Y113.917 E.08102
G1 X117.207 Y116.373 E.08103
G1 X116.565 Y118.876 E.08102
G1 X116.083 Y121.415 E.08102
G1 X115.765 Y123.98 E.08102
G1 X115.611 Y126.559 E.08102
G1 X115.622 Y129.143 E.08103
G1 X115.799 Y131.721 E.08102
G1 X116.139 Y134.28 E.08094
G1 X120.597 Y160.921 E.84692
G1 X120.597 Y175.757 E.46518
G1 X117.408 Y175.757 E.09998
G1 X118.317 Y182.11 E.20122
G1 X113.733 Y182.11 E.14372
G1 X114.641 Y175.763 E.20102
G1 X111.417 Y175.763 E.10108
G1 X111.417 Y88.275 E2.74313
M204 S1000
G1 X111.766 Y88.411 F10800
G1 X112.099 Y88.705
M204 S800
;TYPE:Solid infill
;WIDTH:0.463473
G1 F1200
G1 X112.694 Y89.3 E.02943
G1 X112.619 Y89.821 E.01838
G1 X112.077 Y89.278 E.02681
G1 X112.077 Y89.873 E.0208
G1 X112.545 Y90.341 E.02313
G1 X112.47 Y90.861 E.01838
G1 X112.077 Y90.468 E.01945
G1 X112.077 Y91.063 E.0208
G1 X112.396 Y91.382 E.01577
G1 X112.322 Y91.902 E.01838
G1 X111.907 Y91.488 E.02049
M204 S1000
;WIPE_START
G1 F8640
G1 X112.322 Y91.902 E-.13526
G1 X112.396 Y91.382 E-.12137
G1 X112.077 Y91.063 E-.10416
G1 X112.077 Y90.468 E-.13733
G1 X112.47 Y90.861 E-.12846
G1 X112.545 Y90.341 E-.12137
G1 X112.508 Y90.304 E-.01206
;WIPE_END
G1 E-.04 F2100
G1 Z.6 F720
G1 X112.158 Y92.475 F10800
G1 Z.2 F720
G1 E.8 F2100
M204 S800
;TYPE:Gap fill
;WIDTH:0.370025
G1 F1200
G1 X112.133 Y92.83 E.00969
M204 S1000
M204 S800
;WIDTH:0.323907
G1 X112.107 Y93.186 E.00833
M204 S1000
M204 S800
;WIDTH:0.27779
G1 X112.082 Y93.541 E.00696
M204 S1000
M204 S800
;WIDTH:0.231673
G1 X112.057 Y93.896 E.00559
M204 S1000
M204 S800
;WIDTH:0.185555
G1 X112.032 Y94.252 E.00423
M204 S1000
M204 S800
;WIDTH:0.139438
G1 X112.006 Y94.607 E.00286
M204 S1000
;WIPE_START
G1 F8640
G1 X112.032 Y94.252 E-.08229
;WIPE_END
G1 E-.71771 F2100
G1 Z.6 F720
G1 X184.428 Y94.022 F10800
G1 Z.2 F720
G1 E.8 F2100
M204 S800
;TYPE:Solid infill
;WIDTH:0.420445
G1 F1200
G1 X186.809 Y96.403 E.10569
G1 X188.6 Y98.274 E.08131
G1 X190.283 Y100.255 E.08159
G1 X190.757 Y100.885 E.02473
G1 X182.734 Y92.862 E.35617
G1 X180.773 Y91.435 E.07613
G1 X192.192 Y102.854 E.50694
G1 X193.245 Y104.441 E.05977
G1 X179.283 Y90.479 E.61979
G1 X178.602 Y90.042 E.02542
G1 X177.942 Y89.672 E.02373
G1 X193.484 Y105.213 E.68994
G1 X193.475 Y105.465 E.00792
G1 X193.417 Y105.68 E.00699
G1 X176.727 Y88.99 E.74094
G1 X176.335 Y88.771 E.0141
G1 X175.632 Y88.429 E.02454
G1 X193.246 Y106.044 E.78199
G1 X193.001 Y106.328 E.01177
G1 X174.594 Y87.926 E.81706
G1 X173.996 Y87.635 E.02085
G1 X173.61 Y87.475 E.01313
G1 X182.11 Y95.975 E.37733
G1 X182.317 Y96.137 E.00825
G1 X184.279 Y97.883 E.08244
G1 X186.125 Y99.751 E.08245
G1 X187.715 Y101.581 E.0761
G1 X192.67 Y106.536 E.21999
G1 X192.412 Y106.634 E.00866
G1 X192.254 Y106.654 E.005
G1 X189.478 Y103.877 E.12327
G1 X190.543 Y105.476 E.06033
G1 X191.883 Y106.817 E.0595
M204 S1000
;WIPE_START
G1 F8640
G1 X190.543 Y105.476 E-.43766
G1 X189.769 Y104.315 E-.32234
;WIPE_END
G1 E-.04 F2100
G1 Z.6 F720
G1 X180.652 Y95.051 F10800
G1 Z.2 F720
G1 E.8 F2100
M204 S800
M73 Q1 S92
G1 F1200
G1 X172.698 Y87.098 E.35308
G1 X171.787 Y86.72 E.03097
G1 X178.161 Y93.094 E.28297
G1 X176.83 Y92.297 E.04869
G1 X170.95 Y86.417 E.26104
G1 X170.133 Y86.134 E.02714
G1 X175.569 Y91.57 E.24132
G1 X174.48 Y91.015 E.03838
G1 X169.317 Y85.851 E.22923
G1 X168.558 Y85.626 E.02485
G1 X173.403 Y90.472 E.21511
G1 X172.464 Y90.066 E.03212
G1 X167.815 Y85.417 E.20639
G1 X167.072 Y85.208 E.02423
G1 X171.524 Y89.661 E.19767
G1 X171.069 Y89.464 E.01557
G1 X170.641 Y89.311 E.01428
G1 X166.354 Y85.024 E.19031
G1 X165.671 Y84.875 E.02195
G1 X169.809 Y89.014 E.18374
G1 X168.978 Y88.716 E.02771
G1 X164.987 Y84.726 E.17716
G1 X164.304 Y84.577 E.02195
G1 X168.191 Y88.464 E.17255
G1 X167.442 Y88.248 E.02446
G1 X163.656 Y84.462 E.16809
G1 X163.023 Y84.363 E.02013
G1 X166.693 Y88.033 E.16296
G1 X165.956 Y87.83 E.02403
G1 X162.389 Y84.263 E.15833
G1 X161.756 Y84.164 E.02013
G1 X165.272 Y87.68 E.1561
G1 X164.588 Y87.53 E.02197
G1 X161.15 Y84.091 E.15266
G1 X160.558 Y84.034 E.01864
G1 X163.905 Y87.38 E.14855
G1 X163.243 Y87.253 E.02114
M73 P1 R91
G1 X159.967 Y83.977 E.14544
G1 X159.376 Y83.919 E.01864
G1 X162.613 Y87.156 E.1437
G1 X161.983 Y87.06 E.02001
G1 X158.795 Y83.872 E.14154
G1 X158.24 Y83.851 E.01742
G1 X161.353 Y86.964 E.13818
G1 X160.736 Y86.881 E.01954
G1 X157.685 Y83.831 E.13542
G1 X157.131 Y83.81 E.01742
G1 X160.15 Y86.829 E.13405
G1 X159.565 Y86.778 E.01845
G1 X156.576 Y83.789 E.13269
G1 X156.041 Y83.788 E.01679
G1 X158.98 Y86.726 E.13044
G1 X158.394 Y86.675 E.01845
G1 X155.519 Y83.799 E.12766
G1 X154.996 Y83.811 E.01641
G1 X157.841 Y86.655 E.12629
G1 X157.294 Y86.642 E.01717
G1 X154.473 Y83.822 E.12522
G1 X153.95 Y83.833 E.01641
G1 X156.747 Y86.629 E.12414
G1 X156.2 Y86.616 E.01717
G1 X153.445 Y83.862 E.12229
G1 X152.952 Y83.902 E.01555
G1 X155.654 Y86.604 E.11997
G1 X155.141 Y86.625 E.01612
G1 X152.458 Y83.942 E.1191
G1 X151.964 Y83.982 E.01555
G1 X154.627 Y86.646 E.11824
G1 X154.114 Y86.666 E.01612
G1 X151.47 Y84.022 E.11737
G1 X151.155 Y84.048 E.00993
G1 X150.986 Y84.072 E.00536
G1 X153.601 Y86.687 E.11609
G1 X153.088 Y86.707 E.01612
G1 X150.518 Y84.138 E.11407
G1 X150.05 Y84.204 E.01483
G1 X152.602 Y86.755 E.11327
G1 X152.118 Y86.806 E.01526
G1 X149.583 Y84.27 E.11258
G1 X149.115 Y84.336 E.01483
G1 X151.635 Y86.857 E.11189
G1 X151.152 Y86.907 E.01526
G1 X148.647 Y84.402 E.1112
G1 X148.2 Y84.489 E.0143
G1 X150.668 Y86.958 E.1096
G1 X150.199 Y87.022 E.01488
G1 X147.755 Y84.579 E.10846
G1 X147.311 Y84.668 E.01422
G1 X149.742 Y87.099 E.10792
G1 X149.286 Y87.177 E.01453
G1 X146.867 Y84.758 E.10737
G1 X146.423 Y84.848 E.01422
G1 X148.829 Y87.254 E.10682
G1 X148.373 Y87.332 E.01453
G1 X145.982 Y84.941 E.10615
G1 X145.56 Y85.052 E.01371
G1 X147.917 Y87.409 E.10463
G1 X147.481 Y87.507 E.01402
G1 X145.138 Y85.164 E.10402
G1 X144.715 Y85.276 E.01371
G1 X147.049 Y87.609 E.10359
G1 X146.617 Y87.711 E.01393
G1 X144.293 Y85.388 E.10316
G1 X143.871 Y85.499 E.01371
G1 X146.185 Y87.813 E.10273
G1 X145.753 Y87.916 E.01393
G1 X143.452 Y85.615 E.10214
G1 X143.051 Y85.747 E.01327
G1 X145.321 Y88.018 E.1008
G1 X144.91 Y88.14 E.01347
G1 X142.649 Y85.879 E.10039
G1 X142.247 Y86.011 E.01327
G1 X144.501 Y88.265 E.10006
G1 X144.092 Y88.39 E.01343
G1 X141.846 Y86.144 E.09973
G1 X141.444 Y86.276 E.01327
G1 X143.683 Y88.515 E.0994
G1 X143.274 Y88.64 E.01343
G1 X141.043 Y86.408 E.09905
G1 X140.66 Y86.56 E.01291
G1 X142.865 Y88.764 E.09786
G1 X142.472 Y88.906 E.0131
G1 X140.278 Y86.712 E.09741
G1 X139.896 Y86.863 E.01291
G1 X142.084 Y89.052 E.09716
G1 X141.696 Y89.198 E.01301
G1 X139.513 Y87.015 E.09692
G1 X139.131 Y87.166 E.01291
G1 X141.309 Y89.344 E.09667
G1 X140.921 Y89.49 E.01301
G1 X138.749 Y87.318 E.09643
G1 X138.379 Y87.482 E.0127
G1 X140.533 Y89.636 E.09561
G1 X140.154 Y89.791 E.01285
G1 X138.015 Y87.652 E.09495
G1 X137.651 Y87.822 E.01261
G1 X139.786 Y89.957 E.09478
G1 X139.418 Y90.123 E.01267
G1 X137.287 Y87.991 E.09461
G1 X136.923 Y88.161 E.01261
G1 X139.05 Y90.289 E.09444
G1 X138.682 Y90.455 E.01267
