; generated by PrusaSlicer 2.4.0+win64 on 2022-02-12 at 00:39:40 UTC

; 

; external perimeters extrusion width = 0.45mm
; perimeters extrusion width = 0.45mm
; infill extrusion width = 0.45mm
; solid infill extrusion width = 0.45mm
; top infill extrusion width = 0.40mm
; first layer extrusion width = 0.42mm

M73 P0 R69
M73 Q0 S69
M201 X1000 Y1000 Z200 E5000 ; sets maximum accelerations, mm/sec^2
M203 X200 Y200 Z12 E120 ; sets maximum feedrates, mm/sec
M204 P1250 R1250 T1250 ; sets acceleration (P, T) and retract acceleration (R), mm/sec^2
M205 X8.00 Y8.00 Z0.40 E4.50 ; sets the jerk limits, mm/sec
M205 S0 T0 ; sets the minimum extruding and travel feed rate, mm/sec
M107
;TYPE:Custom
M862.3 P "MK3S" ; printer model check
M862.1 P0.4 ; nozzle diameter check
M115 U3.10.1 ; tell printer latest fw version
G90 ; use absolute coordinates
M83 ; extruder relative mode
M104 S215 ; set extruder temp
M140 S60 ; set bed temp
M190 S60 ; wait for bed temp
M109 S215 ; wait for extruder temp
G28 W ; home all without mesh bed level
G80 ; mesh bed leveling
G1 Z0.2 F720
G1 Y-3 F1000 ; go outside print area
G92 E0
G1 X60 E9 F1000 ; intro line
G1 X100 E12.5 F1000 ; intro line
G92 E0
M221 S95

; Don't change E values below. Excessive value can damage the printer.
M907 E430 ; set extruder motor current
G21 ; set units to millimeters
G90 ; use absolute coordinates
M83 ; use relative distances for extrusion
M900 K0.05 ; Filament gcode LA 1.5
M900 K30 ; Filament gcode LA 1.0
M107
;LAYER_CHANGE
;Z:0.2
;HEIGHT:0.2
;BEFORE_LAYER_CHANGE
G92 E0.0
;0.2


G1 E-.8 F2100
G1 Z.4 F720
;AFTER_LAYER_CHANGE
;0.2
G1 X100.997 Y84.267 F10800
G1 Z.2 F720
G1 E.8 F2100
M204 S800
;TYPE:Skirt/Brim
;WIDTH:0.42
G1 F1200
G1 X102.711 Y82.214 E.08386
G1 X104.599 Y80.132 E.08813
G1 X107.095 Y78.221 E.09854
G1 X110.474 Y75.821 E.12996
G1 X112.266 Y74.915 E.06296
G1 X117.464 Y73.178 E.17185
G1 X118.914 Y72.786 E.04707
G1 X120.704 Y72.558 E.0566
G1 X125.136 Y72.28 E.13923
G1 X130.412 Y72.717 E.16601
G1 X132.048 Y72.946 E.05179
G1 X136.601 Y74.399 E.14983
G1 X138.025 Y75.115 E.04998
G1 X142.643 Y78.085 E.17217
G1 X146.248 Y80.999 E.14532
G1 X147.385 Y82.271 E.05349
G1 X150.474 Y86.802 E.17195
G1 X151.312 Y88.147 E.04968
G1 X153.134 Y91.777 E.12737
G1 X154.091 Y95.188 E.11105
G1 X154.867 Y100.475 E.16754
G1 X154.987 Y102.271 E.05644
G1 X154.931 Y103.873 E.05027
G1 X154.101 Y109.258 E.17084
G1 X153.647 Y110.849 E.05186
G1 X153.111 Y112.314 E.04893
G1 X151.946 Y115.025 E.09252
G1 X149.953 Y118.675 E.13037
G1 X148.998 Y120.182 E.05597
G1 X147.23 Y122.234 E.08491
G1 X141.82 Y127.242 E.23116
G1 X129.032 Y136.164 E.4889
G1 X125.848 Y137.558 E.10897
G1 X124.052 Y137.558 E.05633
G1 X121.283 Y136.396 E.09415
G1 X120.846 Y136.148 E.01576
G1 X106.079 Y125.589 E.5692
G1 X104.734 Y124.404 E.05621
G1 X101.853 Y121.219 E.13465
G1 X100.13 Y119.033 E.08725
G1 X99.205 Y117.567 E.05434
G1 X98.508 Y116.214 E.04775
G1 X95.847 Y109.951 E.21335
G1 X95.13 Y106.44 E.11236
G1 X94.99 Y102.208 E.13278
G1 X95.081 Y99.363 E.08924
G1 X95.267 Y97.619 E.05499
G1 X96.355 Y93.473 E.13437
G1 X97.882 Y89.587 E.13091
G1 X100.051 Y85.402 E.14781
G1 X100.959 Y84.313 E.04445
M204 S1000
; printing object Witcher_-_Wolf_v2-1_medallion_hori.stl id:0 copy 0
;WIPE_START
G1 F8640
G1 X102.711 Y82.214 E-.63141
G1 X103.085 Y81.801 E-.12859
;WIPE_END
G1 E-.04 F2100
G1 Z.6 F720
G1 X139.479 Y83.577 F10800
G1 Z.2 F720
G1 E.8 F2100
M204 S800
;TYPE:External perimeter
G1 F1200
G1 X139.544 Y83.71 E.00465
G1 X139.488 Y83.66 E.00236
G1 X139.485 Y83.637 E.00074
M204 S1000
G1 X139.331 Y83.567 F10800
;WIPE_START
G1 F8640
G1 X139.544 Y83.71 E-.02172
G1 X139.488 Y83.66 E-.01739
G1 X139.485 Y83.637 E-.00543
;WIPE_END
G1 E-.75547 F2100
G1 Z.6 F720
G1 X128.085 Y129.073 F10800
G1 Z.2 F720
G1 E.8 F2100
M204 S800
G1 F1200
G1 X128.189 Y129.534 E.01483
G1 X128.276 Y130.277 E.02344
G1 X128.284 Y131.025 E.02346
G1 X128.107 Y131.766 E.02388
G1 X127.653 Y132.427 E.02516
G1 X127.41 Y132.623 E.00976
G1 X126.944 Y132.97 E.01825
G1 X126.066 Y133.416 E.03086
G1 X125.766 Y133.547 E.01026
G1 X124.95 Y133.897 E.02785
G1 X123.834 Y133.416 E.03808
G1 X122.956 Y132.97 E.03088
G1 X122.247 Y132.427 E.028
G1 X121.792 Y131.766 E.02516
G1 X121.616 Y131.026 E.02384
G1 X121.617 Y130.28 E.0234
G1 X121.741 Y129.138 E.03603
G1 X123.666 Y129.265 E.06047
G1 X125.003 Y129.197 E.04198
G1 X126.351 Y129.186 E.04226
G1 X128.025 Y129.077 E.0526
M204 S1000
G1 X128.479 Y129.009 F10800
;WIPE_START
G1 F8640
G1 X128.189 Y129.534 E-.11229
G1 X128.276 Y130.277 E-.17264
G1 X128.284 Y131.025 E-.17274
G1 X128.107 Y131.766 E-.17586
G1 X127.797 Y132.217 E-.12647
;WIPE_END
G1 E-.04 F2100
G1 Z.6 F720
G1 X139.785 Y124.239 F10800
G1 Z.2 F720
G1 E.8 F2100
M204 S800
;TYPE:Perimeter
G1 F1200
G1 X138.831 Y124.647 E.03254
G1 X140.447 Y123.64 E.0597
G1 X139.829 Y124.198 E.0261
M204 S1000
;WIPE_START
G1 F8640
G1 X138.831 Y124.647 E-.25281
G1 X140.447 Y123.64 E-.43967
G1 X140.23 Y123.836 E-.06752
;WIPE_END
G1 E-.04 F2100
G1 Z.6 F720
G1 X146.085 Y118.063 F10800
G1 Z.2 F720
G1 E.8 F2100
M204 S800
G1 F1200
G1 X146.518 Y117.439 E.02383
G1 X146.244 Y117.897 E.01674
G1 X146.126 Y118.02 E.00534
M204 S1000
;WIPE_START
G1 F8640
G1 X146.518 Y117.439 E-.16184
G1 X146.244 Y117.897 E-.12329
G1 X146.126 Y118.02 E-.03933
;WIPE_END
G1 E-.47555 F2100
G1 Z.6 F720
G1 X151.394 Y102.205 F10800
G1 Z.2 F720
G1 E.8 F2100
M204 S800
G1 F1200
G1 X151.38 Y103.397 E.03736
G1 X151.246 Y104.159 E.02428
G1 X151.337 Y102.251 E.05991
G1 X151.344 Y101.544 E.02217
G1 X151.389 Y102.145 E.01892
M204 S1000
;WIPE_START
G1 F8640
G1 X151.38 Y103.397 E-.28895
G1 X151.246 Y104.159 E-.17881
G1 X151.306 Y102.895 E-.29223
;WIPE_END
G1 E-.04 F2100
G1 Z.6 F720
G1 X149.875 Y93.273 F10800
G1 Z.2 F720
G1 E.8 F2100
M204 S800
G1 F1200
G1 X150.158 Y94.279 E.03278
G1 X149.723 Y93.341 E.0324
G1 X149.386 Y92.265 E.03538
G1 X149.849 Y93.219 E.03324
M204 S1000
;WIPE_START
G1 F8640
G1 X150.158 Y94.279 E-.25502
G1 X149.723 Y93.341 E-.23857
G1 X149.386 Y92.265 E-.26055
G1 X149.397 Y92.287 E-.00585
;WIPE_END
G1 E-.04 F2100
G1 Z.6 F720
G1 X143.711 Y83.472 F10800
G1 Z.2 F720
G1 E.8 F2100
M204 S800
G1 F1200
G1 X144.121 Y83.923 E.01913
G1 X142.918 Y82.85 E.05054
G1 X143.664 Y83.435 E.02969
M204 S1000
;WIPE_START
G1 F8640
G1 X144.121 Y83.923 E-.15456
G1 X142.918 Y82.85 E-.37217
G1 X143.664 Y83.435 E-.21867
;WIPE_END
G1 E-.0546 F2100
G1 Z.6 F720
G1 X130.182 Y76.264 F10800
G1 Z.2 F720
G1 E.8 F2100
M204 S800
G1 F1200
G1 X131.408 Y76.46 E.03893
G1 X132.607 Y76.824 E.03929
G1 X133.9 Y77.277 E.04298
G1 X135.147 Y77.629 E.04062
G1 X135.895 Y77.993 E.02608
G1 X137.325 Y78.846 E.0522
G1 X137.795 Y79.153 E.01759
G1 X137.415 Y78.942 E.01362
G1 X135.135 Y77.863 E.07907
G1 X133.917 Y77.319 E.04184
G1 X132.624 Y76.944 E.0422
G1 X131.429 Y76.649 E.03861
G1 X130.657 Y76.422 E.02522
G1 X129.939 Y76.287 E.0229
G1 X129.888 Y76.236 E.00227
G1 X130.122 Y76.258 E.00736
M204 S1000
;WIPE_START
G1 F8640
G1 X131.408 Y76.46 E-.3005
G1 X132.607 Y76.824 E-.28932
G1 X133.302 Y77.068 E-.17018
;WIPE_END
G1 E-.04 F2100
G1 Z.6 F720
G1 X133.42 Y125.93 F10800
G1 Z.2 F720
G1 E.8 F2100
M204 S800
G1 F1200
G1 X133.509 Y125.253 E.02139
G1 X133.761 Y124.9 E.01361
G1 X133.97 Y124.505 E.01401
G1 X134.109 Y124.171 E.01134
G1 X134.092 Y124.09 E.00261
G1 X134.382 Y123.653 E.01645
G1 X134.423 Y123.525 E.00421
G1 X134.446 Y123.246 E.00878
G1 X134.565 Y122.875 E.0122
G1 X134.649 Y122.717 E.0056
G1 X134.678 Y122.421 E.00932
G1 X134.832 Y121.814 E.01965
G1 X134.747 Y121.587 E.00758
G1 X134.569 Y121.476 E.00657
G1 X134.485 Y120.737 E.02331
G1 X134.385 Y120.387 E.01141
G1 X134.581 Y120.125 E.01026
G1 X134.804 Y119.647 E.01653
G1 X135.057 Y119.456 E.00996
G1 X135.181 Y119.268 E.00705
G1 X135.538 Y118.828 E.01776
G1 X135.68 Y118.744 E.00518
G1 X135.792 Y118.647 E.00461
G1 X135.904 Y118.513 E.00549
G1 X136.194 Y118.343 E.01055
G1 X136.418 Y118.179 E.0087
G1 X136.743 Y117.997 E.01169
G1 X136.858 Y117.869 E.00539
G1 X137.018 Y117.839 E.0051
G1 X137.266 Y117.689 E.00911
G1 X138.151 Y117.08 E.03368
G1 X138.556 Y116.767 E.01604
G1 X139.021 Y116.571 E.01584
G1 X139.845 Y115.876 E.03379
G1 X139.999 Y115.773 E.00581
G1 X140.038 Y115.699 E.00263
G1 X140.171 Y115.605 E.00511
G1 X140.369 Y115.33 E.01062
G1 X140.585 Y115.307 E.00682
G1 X140.745 Y115.247 E.00533
G1 X140.871 Y115.168 E.00466
G1 X141.16 Y115.088 E.00942
G1 X141.397 Y114.912 E.00926
G1 X142.062 Y114.351 E.02728
G1 X142.588 Y113.856 E.02264
G1 X142.902 Y113.588 E.01293
G1 X142.957 Y113.475 E.00395
G1 X143.134 Y113.345 E.00688
G1 X143.215 Y113.259 E.00371
G1 X143.372 Y112.861 E.01341
G1 X143.603 Y112.844 E.00727
G1 X143.767 Y112.647 E.00802
G1 X143.76 Y112.571 E.0024
G1 X144.006 Y112.245 E.0128
G1 X144.026 Y112.163 E.00267
G1 X144.129 Y111.977 E.00666
G1 X144.194 Y111.767 E.00689
G1 X144.327 Y111.555 E.00784
G1 X144.864 Y110.512 E.03678
G1 X144.885 Y110.422 E.0029
G1 X145.024 Y110.205 E.00807
G1 X145.228 Y109.449 E.02456
G1 X145.303 Y109.256 E.0065
G1 X144.979 Y109.526 E.01323
G1 X144.693 Y109.657 E.00985
G1 X144.537 Y109.772 E.00607
G1 X144.364 Y109.838 E.00581
G1 X144.036 Y110.085 E.01287
G1 X143.873 Y110.106 E.00517
G1 X143.684 Y110.192 E.00651
G1 X143.521 Y110.196 E.0051
G1 X143.471 Y110.224 E.00181
G1 X142.871 Y110.38 E.01942
G1 X142.364 Y110.173 E.01719
G1 X142.32 Y110.123 E.00209
G1 X142.207 Y110.102 E.00359
G1 X142.085 Y109.93 E.00663
G1 X141.974 Y109.883 E.00377
G1 X141.774 Y109.519 E.01303
G1 X141.73 Y109.473 E.00198
G1 X141.661 Y109.419 E.00275
G1 X141.253 Y109.215 E.01429
G1 X141.199 Y108.732 E.01523
G1 X140.93 Y107.775 E.03119
G1 X141.662 Y107.709 E.02306
G1 X141.97 Y107.484 E.01196
G1 X142.285 Y107.313 E.01123
G1 X142.342 Y107.213 E.00362
G1 X142.638 Y106.881 E.01393
G1 X142.785 Y106.647 E.00867
G1 X142.837 Y106.604 E.00213
G1 X142.94 Y106.392 E.00739
G1 X143.2 Y106.281 E.00887
G1 X143.419 Y106.107 E.00876
G1 X143.471 Y105.973 E.0045
G1 X143.629 Y105.888 E.00563
G1 X143.893 Y105.474 E.01539
G1 X143.966 Y105.299 E.00594
G1 X144.221 Y105.001 E.01229
G1 X144.262 Y104.853 E.00481
G1 X144.406 Y104.689 E.00685
G1 X144.474 Y104.497 E.0064
G1 X144.586 Y104.006 E.01578
G1 X144.681 Y103.778 E.00775
G1 X145.023 Y103.322 E.01787
G1 X145.032 Y103.22 E.00321
G1 X145.259 Y102.889 E.01258
G1 X145.232 Y102.79 E.00322
G1 X145.391 Y102.499 E.01042
G1 X145.48 Y102.154 E.01114
G1 X144.966 Y101.798 E.01961
G1 X145.006 Y101.477 E.01017
G1 X144.866 Y101.089 E.01292
G1 X145.343 Y100.658 E.02018
G1 X145.376 Y100.607 E.0019
G1 X145.528 Y100.238 E.01251
G1 X145.656 Y99.693 E.01755
G1 X145.775 Y99.355 E.01124
G1 X145.673 Y98.906 E.01444
G1 X145.775 Y98.552 E.01154
G1 X145.728 Y98.376 E.0057
G1 X145.765 Y98.063 E.0099
G1 X145.71 Y97.76 E.00964
G1 X145.689 Y97.476 E.00895
G1 X145.706 Y97.214 E.00822
G1 X145.762 Y96.98 E.00755
G1 X145.737 Y96.858 E.00392
G1 X145.746 Y96.437 E.01319
G1 X145.729 Y96.295 E.00449
G1 X145.555 Y96.286 E.00545
G1 X145.033 Y95.665 E.02545
G1 X145.01 Y95.214 E.01415
G1 X145.188 Y94.58 E.02065
G1 X145.2 Y94.403 E.00558
G1 X145.159 Y94.018 E.01213
G1 X145.104 Y93.792 E.00731
G1 X144.915 Y93.417 E.01316
G1 X144.768 Y93.287 E.00615
G1 X144.663 Y93.073 E.00748
G1 X144.609 Y93.03 E.00217
G1 X144.583 Y92.909 E.00387
G1 X144.533 Y92.807 E.00356
G1 X144.55 Y92.753 E.00177
G1 X144.466 Y92.361 E.01256
G1 X144.491 Y92.307 E.00187
G1 X144.43 Y92.117 E.00625
G1 X144.215 Y92.073 E.00688
G1 X144.123 Y91.653 E.01349
G1 X143.987 Y91.496 E.0065
G1 X143.845 Y90.959 E.01743
G1 X143.64 Y90.507 E.01556
G1 X143.621 Y90.43 E.00249
G1 X143.575 Y90.372 E.00233
G1 X143.545 Y90.192 E.00571
G1 X143.426 Y89.868 E.01082
G1 X143.333 Y89.334 E.017
G1 X143.18 Y89.13 E.008
G1 X142.973 Y88.698 E.01502
G1 X142.733 Y88.423 E.01144
G1 X142.683 Y88.227 E.00635
G1 X142.404 Y87.942 E.0125
G1 X142.253 Y87.71 E.00868
G1 X141.954 Y87.389 E.01375
G1 X141.784 Y87.14 E.00946
G1 X141.771 Y87.044 E.00304
G1 X141.688 Y86.974 E.00341
G1 X141.636 Y86.84 E.00451
G1 X141.57 Y86.77 E.00302
G1 X141.42 Y86.467 E.0106
G1 X141.291 Y86.381 E.00486
G1 X141.258 Y86.29 E.00305
G1 X141.003 Y86.049 E.01099
G1 X140.989 Y86.303 E.00797
G1 X141.063 Y86.56 E.00837
G1 X140.92 Y87.038 E.01565
G1 X140.934 Y87.159 E.0038
G1 X140.907 Y87.249 E.00294
G1 X141.046 Y87.472 E.00827
G1 X141.03 Y88.096 E.01955
G1 X141.051 Y88.204 E.00346
G1 X141.012 Y88.306 E.00343
G1 X141.018 Y88.647 E.01068
G1 X140.984 Y88.787 E.00453
G1 X140.994 Y88.893 E.00331
G1 X140.949 Y89.167 E.00871
G1 X140.9 Y89.289 E.00414
G1 X140.855 Y89.504 E.00689
G1 X140.872 Y89.725 E.00695
G1 X140.559 Y89.974 E.01256
G1 X140.362 Y90.309 E.01217
G1 X140.154 Y90.431 E.00756
G1 X139.916 Y90.686 E.01095
G1 X139.699 Y90.667 E.00681
G1 X139.191 Y90.878 E.01724
G1 X138.012 Y89.027 E.06879
G1 X138.091 Y88.953 E.00339
G1 X137.864 Y88.608 E.01293
G1 X137.637 Y88.392 E.00982
G1 X137.644 Y88.168 E.00704
G1 X137.502 Y87.987 E.0072
G1 X137.476 Y87.747 E.00758
G1 X137.336 Y87.289 E.01502
G1 X137.22 Y87.027 E.00896
G1 X137.218 Y86.883 E.00453
G1 X137.182 Y86.765 E.00385
G1 X137.128 Y86.707 E.00251
G1 X137.105 Y86.507 E.00629
G1 X137.068 Y86.451 E.00212
G1 X137.001 Y86.239 E.00697
G1 X136.748 Y85.863 E.01421
G1 X136.776 Y85.687 E.00558
G1 X136.576 Y85.305 E.0135
G1 X136.553 Y85.143 E.00513
G1 X136.484 Y85.036 E.00401
G1 X136.49 Y84.89 E.00457
G1 X136.357 Y84.658 E.00841
G1 X136.295 Y84.413 E.00792
G1 X136.253 Y84.365 E.002
G1 X136.142 Y84.303 E.00399
G1 X135.97 Y84.123 E.00781
G1 X135.845 Y83.877 E.00864
G1 X135.662 Y83.74 E.00718
G1 X135.597 Y83.626 E.0041
G1 X135.472 Y83.515 E.00526
G1 X135.205 Y83.222 E.01242
G1 X135.172 Y83.164 E.00209
G1 X135.033 Y83.119 E.00458
G1 X134.936 Y82.881 E.00806
G1 X134.846 Y82.819 E.00342
G1 X134.747 Y82.59 E.00783
G1 X134.605 Y82.458 E.00607
G1 X134.592 Y82.387 E.00224
G1 X134.52 Y82.322 E.00306
G1 X134.385 Y82.117 E.00769
G1 X134.332 Y82.091 E.00185
G1 X134.18 Y82.072 E.0048
G1 X134.051 Y81.673 E.01316
G1 X133.862 Y81.502 E.008
G1 X133.732 Y81.156 E.01157
G1 X133.295 Y80.866 E.01646
G1 X132.891 Y80.535 E.01639
G1 X132.851 Y80.411 E.00407
G1 X132.803 Y80.347 E.00252
G1 X132.644 Y80.284 E.00538
G1 X132.608 Y80.245 E.00167
G1 X132.261 Y80.059 E.01232
G1 X131.862 Y79.749 E.01584
G1 X131.612 Y79.634 E.00864
G1 X131.537 Y79.555 E.00344
G1 X130.757 Y79.136 E.02774
G1 X130.667 Y79.037 E.00419
G1 X130.441 Y78.889 E.00848
G1 X130.426 Y78.809 E.00256
G1 X130.34 Y78.685 E.00474
G1 X129.692 Y78.521 E.02095
G1 X129.719 Y78.214 E.00968
G1 X129.495 Y78.097 E.00793
G1 X129.483 Y77.997 E.00315
G1 X128.368 Y77.848 E.03525
G1 X129.347 Y76.225 E.05943
G1 X129.754 Y76.636 E.01815
G1 X130.569 Y76.789 E.026
G1 X131.331 Y77.013 E.02489
G1 X132.527 Y77.308 E.03862
G1 X133.787 Y77.674 E.04114
G1 X134.978 Y78.206 E.0409
G1 X137.243 Y79.278 E.07856
G1 X138.36 Y79.897 E.04006
G1 X139.475 Y80.565 E.04076
G1 X140.46 Y81.343 E.03934
G1 X141.545 Y82.031 E.04028
G1 X142.469 Y82.959 E.04107
G1 X143.388 Y83.759 E.0382
G1 X144.347 Y84.645 E.04096
G1 X145.206 Y85.683 E.04224
G1 X146.553 Y87.821 E.07921
G1 X147.234 Y88.815 E.03778
G1 X148.002 Y89.855 E.04054
G1 X148.621 Y91.083 E.04313
G1 X149.371 Y93.478 E.07866
G1 X149.883 Y94.583 E.03821
G1 X150.348 Y95.851 E.04235
G1 X150.556 Y97.15 E.04124
G1 X150.796 Y98.379 E.03926
G1 X150.957 Y99.67 E.04079
G1 X150.98 Y100.191 E.01634
G1 X150.96 Y102.24 E.06426
G1 X150.839 Y104.76 E.07911
G1 X150.673 Y106.004 E.03934
G1 X150.561 Y107.246 E.0391
G1 X150.348 Y108.527 E.04071
G1 X150.051 Y109.791 E.04072
G1 X149.647 Y111.031 E.0409
G1 X149.166 Y112.248 E.04103
G1 X147.996 Y114.539 E.08063
G1 X147.48 Y115.357 E.03034
G1 X146.597 Y116.68 E.04986
G1 X145.88 Y117.681 E.03862
G1 X145.185 Y118.782 E.04082
G1 X144.254 Y119.724 E.04153
G1 X143.415 Y120.633 E.03879
G1 X142.502 Y121.557 E.04073
G1 X140.49 Y123.17 E.08083
G1 X138.364 Y124.493 E.07851
G1 X137.32 Y125.242 E.04031
G1 X136.121 Y125.82 E.04172
G1 X134.949 Y126.331 E.0401
G1 X133.287 Y126.946 E.05557
G1 X133.412 Y125.989 E.03026
M204 S1000
G1 X133.742 Y126.376 F10800
M204 S800
;TYPE:External perimeter
G1 F1200
G1 X133.871 Y125.396 E.03098
G1 X134.083 Y125.099 E.01145
G1 X134.311 Y124.666 E.01534
G1 X134.506 Y124.229 E.01501
G1 X134.493 Y124.167 E.002
G1 X134.717 Y123.83 E.01265
